images/holts-watch-logo-v1.svg

<svg width="1019" height="270" xmlns="http://www.w3.org/2000/svg"><g fill-rule="nonzero" fill="none"><path d="M454.981688 179.082178h16.935753v28.783117h-65.643286v-28.783117h17.134998v-26.806002h-59.681288v26.806002h16.935753v28.783117h-65.643285v-28.783117h17.134997V93.4991506h-17.134997V64.7160337h65.643285v28.7831169h-16.935753v29.5954204h59.681288V93.4991506h-17.134998V64.7160337h65.643286v28.7831169h-16.935753v85.5830274Zm99.959259-117.1555625c41.167998 0 74.364048 33.1960502 74.364048 74.3640485 0 41.167999-33.19605 74.364049-74.364048 74.364049-41.167999 0-74.364049-33.19605-74.364049-74.364049 0-41.1679983 33.19605-74.3640485 74.364049-74.3640485Zm.199244 122.5811335c26.300228 0 46.224643-21.717612 46.224643-48.217085 0-26.499472-19.924415-48.217085-46.224643-48.217085-26.499473 0-46.423888 21.717613-46.423888 48.217085 0 26.499473 19.924415 48.217085 46.423888 48.217085Zm99.760015-91.0085984h-17.134997V64.7160337h74.011539v28.7831169h-25.304007v85.1845384h40.952337v-23.909298h30.775558v53.090904H637.765209v-28.783117h17.134997V93.4991506Zm176.606952.9962208v84.5868066h22.713834v28.783117H777.22079v-28.783117h22.713833V94.4953714h-21.625654v23.3115656h-29.181605V64.7160337h133.187053v53.0909033h-29.181605V94.4953714h-21.625654Zm121.079139-32.768c12.49553 0 23.291771 2.4987397 32.004127 7.4964195 1.391365.7981307 2.729583 1.6599948 4.013086 2.5855931v-7.0933503h28.18538v47.7113113h-28.013997l-1.091799-1.985089C980.30386 97.025467 970.228747 90.112 953.781762 90.112c-14.588795 0-22.070121 5.5684868-22.070121 15.096576 0 8.170843 5.801498 12.495826 20.694994 14.947384l20.924083 3.387718c29.421502 4.830396 45.450622 19.146056 45.450622 43.032097 0 27.270027-20.664723 44.078938-53.443417 44.078938-16.371893 0-29.583607-4.108137-39.603607-11.922933v9.133515h-29.978582v-51.895439h28.121652l1.145861 1.608227c12.652418 17.757779 21.460743 23.496536 39.916188 23.496536 13.3291 0 21.472389-5.489858 21.472389-13.303379 0-7.240824-5.273856-12.51468-18.122097-14.551759l-26.05111-4.375333c-28.197775-4.354069-43.294976-19.337757-43.294976-42.440107 0-27.2217128 21.055804-44.6766696 53.642656-44.6766696Z" fill="#FFF"/><path d="M214.570627 52.6847534H22.98971v68.7229376c1.8285122 51.855326 38.4250809 99.032438 95.812711 122.916659 57.350613-23.929485 93.93993-71.113804 95.768206-122.916823V52.6847534ZM122.991899 267.424836l-4.178188 1.632749-4.179683-1.628919C46.6312566 240.926406 2.12186112 184.894028.0064945 121.991843L0 .76520112h237.560337V121.798876c-2.121568 63.036907-46.616109 119.071595-114.568438 145.62596Zm-1.059916-56.685828-1.575907-29.948898c-.046404-.997598.366014-1.96227 1.121485-2.623225.75547-.660956 1.772556-.946947 2.765754-.777693l30.082323 5.24019-4.062339-11.105038c-.337931-.905952-.056308-1.924573.700403-2.533337l32.953978-26.443871-7.424275-3.435621c-1.037483-.485829-1.547844-1.660934-1.190686-2.741556l6.513751-19.850255-18.980931 3.990873c-1.060227.219055-2.129399-.332463-2.556472-1.318724l-3.677118-8.571701-14.813531 15.755273c-.695737.727203-1.792189.912399-2.691743.454646-.899554-.457753-1.386525-1.448699-1.195495-2.432731l7.144114-36.5078117-11.451595 6.5589129c-.543454.315631-1.194599.3939913-1.798494.2164352-.603895-.1775561-1.106544-.5951527-1.388341-1.1534228l-11.626696-22.6265144-11.626695 22.6265144c-.281798.5582701-.784446.9758667-1.388341 1.1534228-.603895.1775561-1.25504.0991958-1.798495-.2164352l-11.4515943-6.5589129 7.1441142 36.5078117c.1910303.984032-.2959416 1.974978-1.1954953 2.432731-.8995537.457753-1.9960058.272557-2.6917433-.454646l-14.8135309-15.755273-3.6771176 8.571701c-.4270731.986261-1.4962447 1.537779-2.5564722 1.318724l-18.9809309-3.990873 6.5137512 19.850255c.3571576 1.080622-.1532028 2.255727-1.1906857 2.741556l-7.4242755 3.435621 32.9539777 26.443871c.7567119.608764 1.0383348 1.627385.7004033 2.533337l-4.0623394 11.105038 30.0823237-5.24019c.993198-.169254 2.010284.116737 2.765754.777693.755471.660955 1.167889 1.625627 1.121485 2.623225l-1.575908 29.948898h6.30363Z" fill="#ED3E2F"/></g></svg>

<?xml version="1.0" encoding="UTF-8"?>
<svg width="1019px" height="270px" viewBox="0 0 1019 270" version="1.1" xmlns="http://www.w3.org/2000/svg" xmlns:xlink="http://www.w3.org/1999/xlink">
    <!-- Generator: Sketch 43.2 (39069) - http://www.bohemiancoding.com/sketch -->
    <title>Group</title>
    <desc>Created with Sketch.</desc>
    <defs></defs>
    <g id="Page-1" stroke="none" stroke-width="1" fill="none" fill-rule="evenodd">
        <g id="Artboard-Copy-33" transform="translate(-286.000000, -305.000000)" fill-rule="nonzero">
            <g id="Group" transform="translate(286.000000, 305.000000)">
                <path d="M454.981688,179.082178 L471.917441,179.082178 L471.917441,207.865295 L406.274155,207.865295 L406.274155,179.082178 L423.409153,179.082178 L423.409153,152.276176 L363.727865,152.276176 L363.727865,179.082178 L380.663618,179.082178 L380.663618,207.865295 L315.020333,207.865295 L315.020333,179.082178 L332.15533,179.082178 L332.15533,93.4991506 L315.020333,93.4991506 L315.020333,64.7160337 L380.663618,64.7160337 L380.663618,93.4991506 L363.727865,93.4991506 L363.727865,123.094571 L423.409153,123.094571 L423.409153,93.4991506 L406.274155,93.4991506 L406.274155,64.7160337 L471.917441,64.7160337 L471.917441,93.4991506 L454.981688,93.4991506 L454.981688,179.082178 Z M554.940947,61.9266155 C596.108945,61.9266155 629.304995,95.1226657 629.304995,136.290664 C629.304995,177.458663 596.108945,210.654713 554.940947,210.654713 C513.772948,210.654713 480.576898,177.458663 480.576898,136.290664 C480.576898,95.1226657 513.772948,61.9266155 554.940947,61.9266155 Z M555.140191,184.507749 C581.440419,184.507749 601.364834,162.790137 601.364834,136.290664 C601.364834,109.791192 581.440419,88.073579 555.140191,88.073579 C528.640718,88.073579 508.716303,109.791192 508.716303,136.290664 C508.716303,162.790137 528.640718,184.507749 555.140191,184.507749 Z M654.900206,93.4991506 L637.765209,93.4991506 L637.765209,64.7160337 L711.776748,64.7160337 L711.776748,93.4991506 L686.472741,93.4991506 L686.472741,178.683689 L727.425078,178.683689 L727.425078,154.774391 L758.200636,154.774391 L758.200636,207.865295 L637.765209,207.865295 L637.765209,179.082178 L654.900206,179.082178 L654.900206,93.4991506 Z M831.507158,94.4953714 L831.507158,179.082178 L854.220992,179.082178 L854.220992,207.865295 L777.22079,207.865295 L777.22079,179.082178 L799.934623,179.082178 L799.934623,94.4953714 L778.308969,94.4953714 L778.308969,117.806937 L749.127364,117.806937 L749.127364,64.7160337 L882.314417,64.7160337 L882.314417,117.806937 L853.132812,117.806937 L853.132812,94.4953714 L831.507158,94.4953714 Z M952.586297,61.7273714 C965.081827,61.7273714 975.878068,64.2261111 984.590424,69.2237909 C985.981789,70.0219216 987.320007,70.8837857 988.60351,71.809384 L988.60351,64.7160337 L1016.78889,64.7160337 L1016.78889,112.427345 L988.774893,112.427345 L987.683094,110.442256 C980.30386,97.025467 970.228747,90.112 953.781762,90.112 C939.192967,90.112 931.711641,95.6804868 931.711641,105.208576 C931.711641,113.379419 937.513139,117.704402 952.406635,120.15596 L973.330718,123.543678 C1002.75222,128.374074 1018.78134,142.689734 1018.78134,166.575775 C1018.78134,193.845802 998.116617,210.654713 965.337923,210.654713 C948.96603,210.654713 935.754316,206.546576 925.734316,198.73178 L925.734316,207.865295 L895.755734,207.865295 L895.755734,155.969856 L923.877386,155.969856 L925.023247,157.578083 C937.675665,175.335862 946.48399,181.074619 964.939435,181.074619 C978.268535,181.074619 986.411824,175.584761 986.411824,167.77124 C986.411824,160.530416 981.137968,155.25656 968.289727,153.219481 L942.238617,148.844148 C914.040842,144.490079 898.943641,129.506391 898.943641,106.404041 C898.943641,79.1823282 919.999445,61.7273714 952.586297,61.7273714 Z" id="HOLTS-Copy" fill="#FFFFFF"></path>
                <g id="Group-2" fill="#ED3E2F">
                    <path d="M214.570627,23.7549111 L22.98971,23.7549111 L22.98971,121.407691 C24.8182222,173.263017 61.4147909,220.440129 118.802421,244.32435 C176.153034,220.394865 212.742351,173.210546 214.570627,121.407527 L214.570627,23.7549111 Z M122.991899,267.424836 L118.813711,269.057585 L114.634028,267.428666 C46.6312566,240.926406 2.12186112,184.894028 0.00649449153,121.991843 L0,0.765201123 L237.560337,0.765201123 L237.560337,121.798876 C235.438769,184.835783 190.944228,240.870471 122.991899,267.424836 Z M121.931983,210.739008 L120.356076,180.79011 C120.309672,179.792512 120.72209,178.82784 121.477561,178.166885 C122.233031,177.505929 123.250117,177.219938 124.243315,177.389192 L154.325638,182.629382 L150.263299,171.524344 C149.925368,170.618392 150.206991,169.599771 150.963702,168.991007 L183.91768,142.547136 L176.493405,139.111515 C175.455922,138.625686 174.945561,137.450581 175.302719,136.369959 L181.81647,116.519704 L162.835539,120.510577 C161.775312,120.729632 160.70614,120.178114 160.279067,119.191853 L156.601949,110.620152 L141.788418,126.375425 C141.092681,127.102628 139.996229,127.287824 139.096675,126.830071 C138.197121,126.372318 137.71015,125.381372 137.90118,124.39734 L145.045294,87.8895283 L133.593699,94.4484412 C133.050245,94.7640722 132.3991,94.8424325 131.795205,94.6648764 C131.19131,94.4873203 130.688661,94.0697237 130.406864,93.5114536 L118.780168,70.8849392 L107.153473,93.5114536 C106.871675,94.0697237 106.369027,94.4873203 105.765132,94.6648764 C105.161237,94.8424325 104.510092,94.7640722 103.966637,94.4484412 L92.5150427,87.8895283 L99.6591569,124.39734 C99.8501872,125.381372 99.3632153,126.372318 98.4636616,126.830071 C97.5641079,127.287824 96.4676558,127.102628 95.7719183,126.375425 L80.9583874,110.620152 L77.2812698,119.191853 C76.8541967,120.178114 75.7850251,120.729632 74.7247976,120.510577 L55.7438667,116.519704 L62.2576179,136.369959 C62.6147755,137.450581 62.1044151,138.625686 61.0669322,139.111515 L53.6426567,142.547136 L86.5966344,168.991007 C87.3533463,169.599771 87.6349692,170.618392 87.2970377,171.524344 L83.2346983,182.629382 L113.317022,177.389192 C114.31022,177.219938 115.327306,177.505929 116.082776,178.166885 C116.838247,178.82784 117.250665,179.792512 117.204261,180.79011 L115.628353,210.739008 L121.931983,210.739008 Z M22.98971,23.7549111 L22.98971,52.6847521 L214.570627,52.6847521 L214.570627,23.7549111 L22.98971,23.7549111 Z" id="path6170-path"></path>
                </g>
            </g>
        </g>
    </g>
</svg>
